Origami/32x32/apps/pdfchain.svg

<svg width="32" height="32" version="1" xmlns="http://www.w3.org/2000/svg">
 <rect transform="matrix(0,-1,-1,0,0,0)" x="-23" y="-22" width="20" height="20" rx="2.857" ry="2.857" style="opacity:.2"/>
 <rect transform="matrix(0,-1,-1,0,0,0)" x="-22" y="-22" width="20" height="20" rx="2.857" ry="2.857" style="fill:#2e72be"/>
 <rect transform="matrix(0,-1,-1,0,0,0)" x="-27" y="-26" width="20" height="20" rx="2.857" ry="2.857" style="opacity:.2"/>
 <rect transform="matrix(0,-1,-1,0,0,0)" x="-26" y="-26" width="20" height="20" rx="2.857" ry="2.857" style="fill:#459df7"/>
 <rect transform="matrix(0,-1,-1,0,0,0)" x="-31" y="-30" width="20" height="20" rx="2.857" ry="2.857" style="opacity:.2"/>
 <rect transform="matrix(0,-1,-1,0,0,0)" x="-30" y="-30" width="20" height="20" rx="2.857" ry="2.857" style="fill:#90c2fa"/>
 <path d="m19.502087 17.000782a6.8304585 4.4268983 38.859039 0 0 -3.155875 1.736608 6.8304585 4.4268983 38.859039 0 0 3.644742 7.773558 6.8304585 4.4268983 38.859039 0 0 7.662834 -0.247064 6.8304585 4.4268983 38.859039 0 0 -3.644742 -7.773558 6.8304585 4.4268983 38.859039 0 0 -4.506959 -1.489544z" style="fill:#f34e51"/>
 <path d="m20.742207 20.001912a4.3009863 3.1229486 32.313125 0 1 1.859346 0.32815 4.3009863 3.1229486 32.313125 0 1 3.353072 4.652194 4.3009863 3.1229486 32.313125 0 1 -4.556178 1.688602 4.3009863 3.1229486 32.313125 0 1 -3.353072 -4.652196 4.3009863 3.1229486 32.313125 0 1 2.696832 -2.01675z" style="opacity:.2"/>
 <path d="m20.742207 19.001912a4.3009863 3.1229486 32.313125 0 1 1.859346 0.32815 4.3009863 3.1229486 32.313125 0 1 3.353072 4.652194 4.3009863 3.1229486 32.313125 0 1 -4.556178 1.688602 4.3009863 3.1229486 32.313125 0 1 -3.353072 -4.652196 4.3009863 3.1229486 32.313125 0 1 2.696832 -2.01675z" style="fill:#ffffff"/>
 <path d="m14 16.990846 6 5" style="fill:none;opacity:.2;stroke-linecap:round;stroke-linejoin:round;stroke-width:2;stroke:#000000"/>
 <path d="m14 16 6 5" style="fill:none;stroke-linecap:round;stroke-linejoin:round;stroke-width:2;stroke:#f34e51"/>
 <path d="M 4.8574219 2 C 3.2745648 2 2 3.2745648 2 4.8574219 L 2 5.8574219 C 2 4.2745648 3.2745648 3 4.8574219 3 L 19.142578 3 C 20.725435 3 22 4.2745648 22 5.8574219 L 22 4.8574219 C 22 3.2745648 20.725435 2 19.142578 2 L 4.8574219 2 z" style="fill:#ffffff;opacity:.1"/>
 <path d="M 8.8574219 6 C 7.2745648 6 6 7.2745648 6 8.8574219 L 6 9.8574219 C 6 8.2745648 7.2745648 7 8.8574219 7 L 23.142578 7 C 24.725435 7 26 8.2745648 26 9.8574219 L 26 8.8574219 C 26 7.2745648 24.725435 6 23.142578 6 L 8.8574219 6 z" style="fill:#ffffff;opacity:.1"/>
 <path d="m12.857422 10c-1.582857 0-2.857422 1.274565-2.857422 2.857422v1c0-1.582857 1.274565-2.857422 2.857422-2.857422h14.285156c1.582857 0 2.857422 1.274565 2.857422 2.857422v-1c0-1.582857-1.274565-2.857422-2.857422-2.857422h-14.285156z" style="fill:#ffffff;opacity:.1"/>
</svg>

<svg xmlns="http://www.w3.org/2000/svg" width="32" height="32" version="1">
 <rect style="opacity:0.2" width="20" height="20" x="-23" y="-22" rx="2.857" ry="2.857" transform="matrix(0,-1,-1,0,0,0)"/>
 <rect style="fill:#2e72be" width="20" height="20" x="-22" y="-22" rx="2.857" ry="2.857" transform="matrix(0,-1,-1,0,0,0)"/>
 <rect style="opacity:0.2" width="20" height="20" x="-27" y="-26" rx="2.857" ry="2.857" transform="matrix(0,-1,-1,0,0,0)"/>
 <rect style="fill:#459df7" width="20" height="20" x="-26" y="-26" rx="2.857" ry="2.857" transform="matrix(0,-1,-1,0,0,0)"/>
 <rect style="opacity:0.2" width="20" height="20" x="-31" y="-30" rx="2.857" ry="2.857" transform="matrix(0,-1,-1,0,0,0)"/>
 <rect style="fill:#90c2fa" width="20" height="20" x="-30" y="-30" rx="2.857" ry="2.857" transform="matrix(0,-1,-1,0,0,0)"/>
 <path style="fill:#f34e51" d="m 19.502087,17.000782 a 6.8304585,4.4268983 38.859039 0 0 -3.155875,1.736608 6.8304585,4.4268983 38.859039 0 0 3.644742,7.773558 6.8304585,4.4268983 38.859039 0 0 7.662834,-0.247064 6.8304585,4.4268983 38.859039 0 0 -3.644742,-7.773558 6.8304585,4.4268983 38.859039 0 0 -4.506959,-1.489544 z"/>
 <path style="opacity:0.2" d="m 20.742207,20.001912 a 4.3009863,3.1229486 32.313125 0 1 1.859346,0.32815 4.3009863,3.1229486 32.313125 0 1 3.353072,4.652194 4.3009863,3.1229486 32.313125 0 1 -4.556178,1.688602 4.3009863,3.1229486 32.313125 0 1 -3.353072,-4.652196 4.3009863,3.1229486 32.313125 0 1 2.696832,-2.01675 z"/>
 <path style="fill:#ffffff" d="m 20.742207,19.001912 a 4.3009863,3.1229486 32.313125 0 1 1.859346,0.32815 4.3009863,3.1229486 32.313125 0 1 3.353072,4.652194 4.3009863,3.1229486 32.313125 0 1 -4.556178,1.688602 4.3009863,3.1229486 32.313125 0 1 -3.353072,-4.652196 4.3009863,3.1229486 32.313125 0 1 2.696832,-2.01675 z"/>
 <path style="opacity:0.2;fill:none;stroke:#000000;stroke-width:2;stroke-linecap:round;stroke-linejoin:round" d="m 14,16.990846 6,5"/>
 <path style="fill:none;stroke:#f34e51;stroke-width:2;stroke-linecap:round;stroke-linejoin:round" d="m 14,16 6,5"/>
 <path style="opacity:0.1;fill:#ffffff" d="M 4.8574219 2 C 3.2745648 2 2 3.2745648 2 4.8574219 L 2 5.8574219 C 2 4.2745648 3.2745648 3 4.8574219 3 L 19.142578 3 C 20.725435 3 22 4.2745648 22 5.8574219 L 22 4.8574219 C 22 3.2745648 20.725435 2 19.142578 2 L 4.8574219 2 z"/>
 <path style="opacity:0.1;fill:#ffffff" d="M 8.8574219 6 C 7.2745648 6 6 7.2745648 6 8.8574219 L 6 9.8574219 C 6 8.2745648 7.2745648 7 8.8574219 7 L 23.142578 7 C 24.725435 7 26 8.2745648 26 9.8574219 L 26 8.8574219 C 26 7.2745648 24.725435 6 23.142578 6 L 8.8574219 6 z"/>
 <path style="opacity:0.1;fill:#ffffff" d="M 12.857422 10 C 11.274565 10 10 11.274565 10 12.857422 L 10 13.857422 C 10 12.274565 11.274565 11 12.857422 11 L 27.142578 11 C 28.725435 11 30 12.274565 30 13.857422 L 30 12.857422 C 30 11.274565 28.725435 10 27.142578 10 L 12.857422 10 z"/>
</svg>
